X:1
T:Across the Western Ocean
M:4/4
L:1/4
K:D
 D/2E/2| F F F E/2D/2| FF/2-E/2 D A| F F F3/2 E/2| F- A z| A| B B AA/2-G/2|\
 FF/2-E/2 D A| F3/2 F/2 F3/2 E/2| E D z||
